docs/images/icons/down-arrow.svg

<svg width="23" height="25" viewBox="0 0 23 25" fill="none" xmlns="http://www.w3.org/2000/svg">
<path fill-rule="evenodd" clip-rule="evenodd" d="M0.461741 0.821788C0.865098 0.432738 1.51713 0.432738 1.92048 0.821788L11.5002 10.0913L21.0799 0.821787C21.4832 0.432737 22.1352 0.432737 22.5386 0.821787C22.9407 1.21084 22.9407 1.843 22.5386 2.23205L12.2295 12.2073C11.8262 12.5976 11.1741 12.5976 10.7708 12.2073L0.461709 2.23205C0.0596382 1.843 0.0596709 1.21084 0.461741 0.821788Z" fill="#333333"/>
<path fill-rule="evenodd" clip-rule="evenodd" d="M0.461741 12.7918C0.865098 12.4027 1.51713 12.4027 1.92048 12.7918L11.5002 22.0612L21.0799 12.7918C21.4832 12.4027 22.1352 12.4027 22.5386 12.7918C22.9407 13.1808 22.9407 13.813 22.5386 14.202L12.2295 24.1772C11.8262 24.5675 11.1741 24.5675 10.7708 24.1772L0.461709 14.202C0.0596382 13.813 0.0596709 13.1808 0.461741 12.7918Z" fill="#333333"/>
</svg>

<svg width="23" height="25" fill="none" xmlns="http://www.w3.org/2000/svg"><path fill-rule="evenodd" clip-rule="evenodd" d="M.462.822a1.057 1.057 0 0 1 1.458 0l9.58 9.27 9.58-9.27a1.057 1.057 0 0 1 1.459 0 .975.975 0 0 1 0 1.41l-10.31 9.975c-.403.39-1.055.39-1.458 0L.46 2.232a.975.975 0 0 1 0-1.41Z" fill="#333"/><path fill-rule="evenodd" clip-rule="evenodd" d="M.462 12.792a1.057 1.057 0 0 1 1.458 0l9.58 9.27 9.58-9.27a1.057 1.057 0 0 1 1.459 0 .975.975 0 0 1 0 1.41l-10.31 9.975c-.403.39-1.055.39-1.458 0L.46 14.202a.975.975 0 0 1 0-1.41Z" fill="#333"/></svg>
